images/social/vimeo.svg

<svg xmlns="http://www.w3.org/2000/svg" width="299.91" height="261.26" viewBox="0 0 299.91 261.26"><defs><style>.a{fill:#333;}</style></defs><title>vimeo</title><path class="a" d="M213.63,29.59C226.94,21.86,242.69,18.76,258,19.5c10.18.94,20.83,3.85,28.23,11.31,9.61,9.41,12.8,23.32,13.52,36.31a96.51,96.51,0,0,1-3.32,32.45c-5,17.74-13.44,34.27-22.82,50-11.9,19.91-25.66,38.64-40,56.88-11.87,15-24.49,29.51-38.56,42.52-15.36,13.93-32.93,27.25-53.92,30.67-5.9,2.4-12-.18-17.54-2.28-11.24-5.35-18.51-16.15-24.25-26.78-4-7.92-7.83-16.06-10-24.71Q78.82,187,68.22,148C64.72,135.06,61,122.06,55,110c-2.77-5.26-5.87-10.67-10.8-14.19-2.56-1.67-6-3.15-8.93-1.5C27.78,98,21,103,14.1,107.74,9.44,101.73,5.05,95.5,0,89.82v-1l0,1C7.15,83.32,14.44,77,21.58,70.58c15.83-13.87,30.73-29.1,48.85-40.06,5.34-3.14,11-6.11,17.21-7,6.23-.67,12.74-.15,18.47,2.54,7.25,3.26,12.7,9.54,16.35,16.47,5.66,10.67,7.94,22.7,9.69,34.54,4.47,26.94,8.14,54.12,15.48,80.48,2.5,8.22,5.06,16.66,10,23.78,2.25,3.25,6.18,6.42,10.36,4.86,6.08-2.45,10.32-7.79,14.37-12.72a242.7,242.7,0,0,0,22.85-36.2c5.84-11.43,11-24.22,8.82-37.3-.87-6.29-5.36-12-11.63-13.6-10.17-2.72-20.95-.19-30.49,3.68C179.19,66.43,191.61,42.47,213.63,29.59Z" transform="translate(0 -19.39)"/></svg>

<?xml version="1.0" encoding="UTF-8" ?>
<!DOCTYPE svg PUBLIC "-//W3C//DTD SVG 1.1//EN" "http://www.w3.org/Graphics/SVG/1.1/DTD/svg11.dtd">
<svg width="300pt" height="300pt" viewBox="0 0 300 300" version="1.1" xmlns="http://www.w3.org/2000/svg">
<g>
<path fill="#fff" opacity="1.00" d=" M 213.63 29.59 C 226.94 21.86 242.69 18.76 257.98 19.50 C 268.16 20.44 278.81 23.35 286.21 30.81 C 295.82 40.22 299.01 54.13 299.73 67.12 C 300.31 78.03 299.51 89.06 296.41 99.57 C 291.43 117.31 282.97 133.84 273.59 149.62 C 261.69 169.53 247.93 188.26 233.63 206.50 C 221.76 221.53 209.14 236.01 195.07 249.02 C 179.71 262.95 162.14 276.27 141.15 279.69 C 135.25 282.09 129.15 279.51 123.61 277.41 C 112.37 272.06 105.10 261.26 99.36 250.63 C 95.35 242.71 91.53 234.57 89.38 225.92 C 82.34 199.95 75.27 173.98 68.22 148.01 C 64.72 135.06 60.97 122.06 55.02 109.98 C 52.25 104.72 49.15 99.31 44.22 95.79 C 41.66 94.12 38.21 92.64 35.29 94.29 C 27.78 98.01 21.00 103.02 14.10 107.74 C 9.44 101.73 5.05 95.50 0.00 89.82 L 0.00 88.83 L 0.03 89.79 C 7.15 83.32 14.44 77.04 21.58 70.58 C 37.41 56.71 52.31 41.48 70.43 30.52 C 75.77 27.38 81.43 24.41 87.64 23.53 C 93.87 22.86 100.38 23.38 106.11 26.07 C 113.36 29.33 118.81 35.61 122.46 42.54 C 128.12 53.21 130.40 65.24 132.15 77.08 C 136.62 104.02 140.29 131.20 147.63 157.56 C 150.13 165.78 152.69 174.22 157.66 181.34 C 159.91 184.59 163.84 187.76 168.02 186.20 C 174.10 183.75 178.34 178.41 182.39 173.48 C 191.12 162.17 198.64 149.94 205.24 137.28 C 211.08 125.85 216.27 113.06 214.06 99.98 C 213.19 93.69 208.70 87.97 202.43 86.38 C 192.26 83.66 181.48 86.19 171.94 90.06 C 179.19 66.43 191.61 42.47 213.63 29.59 Z" />
</g>
</svg>
